other/disabler.svg

<svg xmlns="http://www.w3.org/2000/svg" viewBox="0 0 48 48"><defs><style>.a{fill:none;stroke:#fff;stroke-linecap:round;stroke-linejoin:round;}</style></defs><path class="a" d="M9.247,6.64c-.382.379-2.732,2.699-2.822,2.798H6.424a2.806,2.806,0,0,0-.733,1.894V39.686A2.8154,2.8154,0,0,0,8.505,42.5h30.99a2.8154,2.8154,0,0,0,2.814-2.814V11.332a2.806,2.806,0,0,0-.733-1.894h-.001c-.09-.099-2.46-2.401-2.822-2.798A3.2369,3.2369,0,0,0,36.366,5.5H11.634A3.4169,3.4169,0,0,0,9.247,6.64Z"/><path class="a" d="M5.784,10.612H42.216"/><path class="a" d="M27.866,24.244h7.178L24,35.289,12.956,24.244h7.178V19.961h7.732Z"/></svg>

<?xml version="1.0" encoding="UTF-8" standalone="no"?>
<!DOCTYPE svg PUBLIC "-//W3C//DTD SVG 1.1//EN" "http://www.w3.org/Graphics/SVG/1.1/DTD/svg11.dtd">
<svg width="48px" height="48px" version="1.1" xmlns="http://www.w3.org/2000/svg" xmlns:xlink="http://www.w3.org/1999/xlink" xml:space="preserve" xmlns:serif="http://www.serif.com/" style="clip-rule:evenodd;stroke-linecap:round;stroke-linejoin:round;stroke-miterlimit:1.5;">
    <rect id="disabler" x="0" y="0" width="48" height="48" style="fill:none;"/>
    <path d="M9.247,6.64C8.865,7.019 6.515,9.339 6.425,9.438L6.424,9.438L6.424,9.438C5.969,9.938 5.691,10.603 5.691,11.332L5.691,39.686C5.691,41.239 6.952,42.5 8.505,42.5L39.495,42.5C41.048,42.5 42.309,41.239 42.309,39.686L42.309,11.332C42.309,10.603 42.031,9.938 41.576,9.438L41.576,9.438L41.575,9.438C41.485,9.339 39.115,7.037 38.753,6.64C38.151,5.978 37.33,5.5 36.366,5.5L11.634,5.5C10.67,5.5 9.882,6.01 9.247,6.64Z" style="fill:none;stroke:white;stroke-width:1px;"/>
    <path d="M5.784,10.612L42.216,10.612" style="fill:none;stroke:white;stroke-width:1px;"/>
    <path d="M27.866,24.244L35.044,24.244L24,35.289L12.956,24.244L20.134,24.244L20.134,19.961L27.866,19.961L27.866,24.244Z" style="fill:none;stroke:white;stroke-width:1px;"/>
</svg>
